fs/document_table_20_regular.svg

<svg viewBox="0 0 20 20" fill="none" xmlns="http://www.w3.org/2000/svg" height="1em" width="1em">
  <path d="M6 10.5C6 9.67157 6.67157 9 7.5 9H12.5C13.3284 9 14 9.67157 14 10.5V14.5C14 15.3284 13.3284 16 12.5 16H7.5C6.67157 16 6 15.3284 6 14.5V10.5ZM8 15V13H7V14.5C7 14.7761 7.22386 15 7.5 15H8ZM9 12H13V10.5C13 10.2239 12.7761 10 12.5 10H9V12ZM9 15H12.5C12.7761 15 13 14.7761 13 14.5V13H9V15ZM7.5 10C7.22386 10 7 10.2239 7 10.5V12H8V10H7.5ZM6 2C4.89543 2 4 2.89543 4 4V16C4 17.1046 4.89543 18 6 18H14C15.1046 18 16 17.1046 16 16V7.41421C16 7.01639 15.842 6.63486 15.5607 6.35355L11.6464 2.43934C11.3651 2.15804 10.9836 2 10.5858 2H6ZM5 4C5 3.44772 5.44772 3 6 3H10V6.5C10 7.32843 10.6716 8 11.5 8H15V16C15 16.5523 14.5523 17 14 17H6C5.44772 17 5 16.5523 5 16V4ZM14.7929 7H11.5C11.2239 7 11 6.77614 11 6.5V3.20711L14.7929 7Z" fill="#212121"/>
</svg>

<svg viewBox="0 0 20 20" fill="none" xmlns="http://www.w3.org/2000/svg" height="1em" width="1em">
  <path d="M6 10.5A1.5 1.5 0 0 1 7.5 9h5a1.5 1.5 0 0 1 1.5 1.5v4a1.5 1.5 0 0 1-1.5 1.5h-5A1.5 1.5 0 0 1 6 14.5v-4ZM8 15v-2H7v1.5a.5.5 0 0 0 .5.5H8Zm1-3h4v-1.5a.5.5 0 0 0-.5-.5H9v2Zm0 3h3.5a.5.5 0 0 0 .5-.5V13H9v2Zm-1.5-5a.5.5 0 0 0-.5.5V12h1v-2h-.5ZM6 2a2 2 0 0 0-2 2v12a2 2 0 0 0 2 2h8a2 2 0 0 0 2-2V7.414a1.5 1.5 0 0 0-.44-1.06l-3.914-3.915A1.5 1.5 0 0 0 10.586 2H6ZM5 4a1 1 0 0 1 1-1h4v3.5A1.5 1.5 0 0 0 11.5 8H15v8a1 1 0 0 1-1 1H6a1 1 0 0 1-1-1V4Zm9.793 3H11.5a.5.5 0 0 1-.5-.5V3.207L14.793 7Z" fill="#212121"/>
</svg>
